!!!COM: Georges Bizet
!!!CNT: Francais
!!!TXO: Francais
!!!OTL: Pastorale
!!!LYR: Charles Regnard
!!!ENC: Jacob Pegg
!!!YOR: Romantic French Song 1830-1870 -David Tunley, ed.,
!!!YOR: New York: Garland Publishing, Inc., 1995, Vol. 4
!!!ODT: 1868/
!!NB: Vocal melody and text only encoded.
!!NB: First instance of melodic material only encoded.
**kern	**silbe
*clef G2	*
*k[b-e-a-d-]	*
*M6/8	*
!!created: 5/7/03 15:03
!!proofed and posted: 5/8/03 12:00
!!edit time: 53 min.
=3	=3
{8f	{Un
[4cc	jour
8cc]	|
8b-	de
8a-	prin-
=4	=4
(8g	-temps,
[4cc)	|
4.cc_	|
=5	=5
2.cc_	|
=6	=6
8cc]}	|}
8r	.
8r	.
4r	.
8r	.
=7	=7
{8f	{Tout
8cc	le
[8cc	long
8cc]	|
8b-	d'un
8a-	ver-
=8	=8
(16.g	-ger
32a-	|
8g	|
[8cc)	|
4.cc_	|
=9	=9
2.cc_	|
=10	=10
8cc]}	|}
8r	.
8r	.
4r	.
{8f	{Co-
=11	=11
4.dd-	-lin
(64dd-q	va,
4ff)	|
8ff	-chan-
=12	=12
(16cc	-tant
16dd-	|
[4cc)	|
(16cc]	|
16dd-	|
4cc)}	|}
=13	=13
8r	.
{8cc	{Pour
8cc	ses
(64ccq	maux
8b-)	|
8a-	sou-
8b-	-la-
=14	=14
[4.cc	-ger:
8cc]}	|}
8r	.
8r	.
=15	=15
{16dn	{<<Ma
16en	ber-
[8f	-ge\-
16f]	-re,
16r	.
16e	ma
16f	ber-
[8g	-ge\-
16g]	-re,
16r	.
=16	=16
(64gq	tra
16f)	|
16en	la
16f	la
16g	la
16a-	la
16b-	la
16cc	la
16dd-	la
[8cc	la
16cc]}	|}
16r	.
!!mm.17-18 identical to 15-16
=19	=19
{16b-	{Lais-
16cc	-se~
4dd-	~moi,
16gg	lais-
16ff	-se~
4een	~moi
=20	=20
16g	pren-
16a-	-dre un
4b-	ten-
16ee-	-dre
16dd-	bai-
4cc}	-ser.}
=21	=21
8r	.
{(8ff	{Oh!
8ee-)	|
(8dd-	lais-
8cc)	|
8b-	-se~
=22	=22
8a-	~moi,
8b-	ma
8bn	ber-
(8cc	-ge\-
8dd-)	|
8cc}	-re,}
=23	=23
8r	.
{8bn	{pren-
8cc	-dre un
8cc	ten-
(16ccq	|
16ee-q	|
8.dd-)	-dre
16cc	bai-
=24	=24
[4.cc	-ser.
4cc]}	|}
8r	.
=25	=25
8r	.
{8ff	{Ma
8cc	ber-
(8cc	-ge\-
8ddn	|
8an)	|
=26	=26
16an}	-re}
16r	.
{(8g	{lais-
8a-)	|
(8b-	-se-
8cc)	|
8ddn	moi
=27	=27
(8een	pren-
16ffq	|
16eenq	|
8ddn	|
8een	|
8gg)	|
16ff}	-dre}
16r	.
{8an	{un
=28	=28
(4.an	ten-
8f	|
8g	|
8an)	|
=29	=29
4.gt;	|
(24g	|
24f	|
24an)	|
(16gq	|
16a-q	|
8.g;)	-dre
16f	bai-
=30	=30
[4.f	-ser!>>
4f]}	|}
8r	.
*-	*-
